Dominus_Dark_Funeral/22/apps/steam.svg

<svg xmlns="http://www.w3.org/2000/svg" width="24" height="24" viewBox="0 0 6.35 6.35"><path d="M4.87.9a1.3 1.3 0 0 0-1.3 1.42l-.9 1.03a1.05 1.05 0 0 0-.64.24L.44 3.04.17 4.06l1.49.53a1.05 1.05 0 0 0 2.08-.18l1.03-.9.1.01a1.3 1.3 0 0 0 0-2.61V.9zm.06.35a.94.94 0 1 1-.19 1.85.94.94 0 0 1 0-1.84.94.94 0 0 1 .1 0 .94.94 0 0 1 .09-.01zm-.06.36a.61.61 0 0 0-.61.6.61.61 0 0 0 .61.62.61.61 0 0 0 .61-.61.61.61 0 0 0-.6-.61h-.01zM2.69 3.69a.7.7 0 0 1 .01 0v.01c.1 0 .18 0 .26.04a.7.7 0 1 1-.85 1l.4.14a.53.53 0 1 0 .35-1.01l-.38-.14a.7.7 0 0 1 .2-.04z" fill="#e6e6e6"/></svg>

<?xml version="1.0" encoding="UTF-8" standalone="no"?>
<svg
   xmlns:dc="http://purl.org/dc/elements/1.1/"
   xmlns:cc="http://creativecommons.org/ns#"
   xmlns:rdf="http://www.w3.org/1999/02/22-rdf-syntax-ns#"
   xmlns:svg="http://www.w3.org/2000/svg"
   xmlns="http://www.w3.org/2000/svg"
   xmlns:sodipodi="http://sodipodi.sourceforge.net/DTD/sodipodi-0.dtd"
   xmlns:inkscape="http://www.inkscape.org/namespaces/inkscape"
   width="24"
   height="24"
   viewBox="0 0 6.35 6.35"
   version="1.1"
   id="svg4"
   sodipodi:docname="steam.svg"
   inkscape:version="0.92.4 (5da689c313, 2019-01-14)">
  <metadata
     id="metadata10">
    <rdf:RDF>
      <cc:Work
         rdf:about="">
        <dc:format>image/svg+xml</dc:format>
        <dc:type
           rdf:resource="http://purl.org/dc/dcmitype/StillImage" />
        <dc:title></dc:title>
      </cc:Work>
    </rdf:RDF>
  </metadata>
  <defs
     id="defs8" />
  <sodipodi:namedview
     pagecolor="#ffffff"
     bordercolor="#666666"
     borderopacity="1"
     objecttolerance="10"
     gridtolerance="10"
     guidetolerance="10"
     inkscape:pageopacity="0"
     inkscape:pageshadow="2"
     inkscape:window-width="1138"
     inkscape:window-height="480"
     id="namedview6"
     showgrid="false"
     inkscape:zoom="9.8333333"
     inkscape:cx="1.0677966"
     inkscape:cy="12"
     inkscape:window-x="0"
     inkscape:window-y="25"
     inkscape:window-maximized="0"
     inkscape:current-layer="svg4" />
  <path
     d="M 4.87,0.9 A 1.3,1.3 0 0 0 3.57,2.32 L 2.67,3.35 A 1.05,1.05 0 0 0 2.03,3.59 L 0.44,3.04 0.17,4.06 1.66,4.59 A 1.05,1.05 0 0 0 3.74,4.41 l 1.03,-0.9 0.1,0.01 a 1.305,1.305 0 0 0 0,-2.61 z m 0.06,0.35 a 0.94,0.94 0 1 1 -0.19,1.85 0.94,0.94 0 0 1 0,-1.84 0.94,0.94 0 0 1 0.1,0 0.94,0.94 0 0 1 0.09,-0.01 z M 4.87,1.61 A 0.61,0.61 0 0 0 4.26,2.21 0.61,0.61 0 0 0 4.87,2.83 0.61,0.61 0 0 0 5.48,2.22 0.61,0.61 0 0 0 4.88,1.61 Z M 2.69,3.69 a 0.7,0.7 0 0 1 0.01,0 V 3.7 c 0.1,0 0.18,0 0.26,0.04 a 0.7,0.7 0 1 1 -0.85,1 l 0.4,0.14 A 0.53446235,0.53446235 0 1 0 2.86,3.87 L 2.48,3.73 a 0.7,0.7 0 0 1 0.2,-0.04 z"
     id="path2"
     inkscape:connector-curvature="0"
     style="fill:#e6e6e6" />
</svg>
